ekrany/assets/img/svg/price-1.svg

<svg width="158" height="140" viewBox="0 0 158 140" fill="none" xmlns="http://www.w3.org/2000/svg">
<path d="M136.26 139L157 124.587L156.436 7.24178M136.26 139L137.049 8.60362M136.26 139L1 97.9178V1.79441M156.436 7.24178L137.049 8.60362M156.436 7.24178L151.59 6.22039L27.9393 1L1 1.79441M137.049 8.60362L1 1.79441M125.89 22.676L125.101 124.36L8.43931 91.1086V13.2566L125.89 22.676Z" stroke="#232323" stroke-opacity="0.6"/>
<path d="M32.543 60.8496C32.2305 60.8496 31.9277 60.8848 31.6348 60.9551C31.3457 61.0215 31.0293 61.1387 30.6855 61.3066L30.4453 60.7676C31.0859 60.4629 31.8047 60.3105 32.6016 60.3105C33.8672 60.3105 34.8594 60.6855 35.5781 61.4355C36.3008 62.1855 36.6621 63.2109 36.6621 64.5117C36.6621 65.4453 36.5 66.2598 36.1758 66.9551C35.8516 67.6504 35.3828 68.1855 34.7695 68.5605C34.1602 68.9316 33.4551 69.1172 32.6543 69.1172C31.7246 69.1172 30.9766 69.0176 30.4102 68.8184V68.2676C31.0625 68.4668 31.7734 68.5664 32.543 68.5664C33.5977 68.5664 34.4277 68.2363 35.0332 67.5762C35.6387 66.916 35.9688 65.9863 36.0234 64.7871H31.4883V64.2363H36.0117C35.9258 63.1504 35.584 62.3145 34.9863 61.7285C34.3926 61.1426 33.5781 60.8496 32.543 60.8496ZM41.9414 62.6309H42.6621L39.8086 65.7129L42.8672 69H42.0879L39.0762 65.7715V69H38.4844V62.6309H39.0762V65.7246L41.9414 62.6309ZM46.7168 69.1172C45.7363 69.1172 45.0215 68.75 44.5723 68.0156H44.5312L44.5488 68.5078C44.5645 68.7969 44.5723 69.1133 44.5723 69.457V71.8828H43.9922V62.6309H44.4844L44.5957 63.5391H44.6309C45.0684 62.8516 45.7676 62.5078 46.7285 62.5078C47.5879 62.5078 48.2422 62.791 48.6914 63.3574C49.1445 63.9199 49.3711 64.7402 49.3711 65.8184C49.3711 66.8652 49.1328 67.6777 48.6562 68.2559C48.1836 68.8301 47.5371 69.1172 46.7168 69.1172ZM46.7051 68.6016C47.3574 68.6016 47.8613 68.3594 48.2168 67.875C48.5762 67.3906 48.7559 66.7129 48.7559 65.8418C48.7559 63.9707 48.0801 63.0352 46.7285 63.0352C45.9863 63.0352 45.4414 63.2402 45.0938 63.6504C44.7461 64.0566 44.5723 64.7207 44.5723 65.6426V65.8301C44.5723 66.8262 44.7383 67.5371 45.0703 67.9629C45.4062 68.3887 45.9512 68.6016 46.7051 68.6016ZM55.0078 69L54.8613 67.9922H54.8145C54.4941 68.4023 54.1641 68.6934 53.8242 68.8652C53.4883 69.0332 53.0898 69.1172 52.6289 69.1172C52.0039 69.1172 51.5176 68.957 51.1699 68.6367C50.8223 68.3164 50.6484 67.873 50.6484 67.3066C50.6484 66.6855 50.9062 66.2031 51.4219 65.8594C51.9414 65.5156 52.6914 65.334 53.6719 65.3145L54.8848 65.2793V64.8574C54.8848 64.252 54.7617 63.7949 54.5156 63.4863C54.2695 63.1777 53.873 63.0234 53.3262 63.0234C52.7363 63.0234 52.125 63.1875 51.4922 63.5156L51.2754 63.0117C51.9746 62.6836 52.666 62.5195 53.3496 62.5195C54.0488 62.5195 54.5703 62.7012 54.9141 63.0645C55.2617 63.4277 55.4355 63.9941 55.4355 64.7637V69H55.0078ZM52.6641 68.5898C53.3438 68.5898 53.8789 68.3965 54.2695 68.0098C54.6641 67.6191 54.8613 67.0781 54.8613 66.3867V65.7598L53.748 65.8066C52.8535 65.8496 52.2148 65.9902 51.832 66.2285C51.4531 66.4629 51.2637 66.8301 51.2637 67.3301C51.2637 67.7285 51.3848 68.0391 51.627 68.2617C51.873 68.4805 52.2188 68.5898 52.6641 68.5898ZM58.084 62.6309V65.4258H62.127V62.6309H62.7012V69H62.127V65.9297H58.084V69H57.5039V62.6309H58.084ZM71.4141 62.6309H72.1348L69.2812 65.7129L72.3398 69H71.5605L68.5488 65.7715V69H67.957V62.6309H68.5488V65.7246L71.4141 62.6309ZM78.7324 65.8066C78.7324 66.8457 78.4805 67.6582 77.9766 68.2441C77.4727 68.8262 76.7773 69.1172 75.8906 69.1172C75.332 69.1172 74.8398 68.9824 74.4141 68.7129C73.9883 68.4434 73.6621 68.0566 73.4355 67.5527C73.209 67.0488 73.0957 66.4668 73.0957 65.8066C73.0957 64.7676 73.3477 63.959 73.8516 63.3809C74.3555 62.7988 75.0469 62.5078 75.9258 62.5078C76.8008 62.5078 77.4863 62.8027 77.9824 63.3926C78.4824 63.9785 78.7324 64.7832 78.7324 65.8066ZM73.7051 65.8066C73.7051 66.6816 73.8965 67.3652 74.2793 67.8574C74.666 68.3457 75.2109 68.5898 75.9141 68.5898C76.6172 68.5898 77.1602 68.3457 77.543 67.8574C77.9297 67.3652 78.123 66.6816 78.123 65.8066C78.123 64.9277 77.9277 64.2461 77.5371 63.7617C77.1504 63.2773 76.6055 63.0352 75.9023 63.0352C75.1992 63.0352 74.6562 63.2773 74.2734 63.7617C73.8945 64.2422 73.7051 64.9238 73.7051 65.8066ZM83.2207 69.1172C82.2402 69.1172 81.5254 68.75 81.0762 68.0156H81.0352L81.0527 68.5078C81.0684 68.7969 81.0762 69.1133 81.0762 69.457V71.8828H80.4961V62.6309H80.9883L81.0996 63.5391H81.1348C81.5723 62.8516 82.2715 62.5078 83.2324 62.5078C84.0918 62.5078 84.7461 62.791 85.1953 63.3574C85.6484 63.9199 85.875 64.7402 85.875 65.8184C85.875 66.8652 85.6367 67.6777 85.1602 68.2559C84.6875 68.8301 84.041 69.1172 83.2207 69.1172ZM83.209 68.6016C83.8613 68.6016 84.3652 68.3594 84.7207 67.875C85.0801 67.3906 85.2598 66.7129 85.2598 65.8418C85.2598 63.9707 84.584 63.0352 83.2324 63.0352C82.4902 63.0352 81.9453 63.2402 81.5977 63.6504C81.25 64.0566 81.0762 64.7207 81.0762 65.6426V65.8301C81.0762 66.8262 81.2422 67.5371 81.5742 67.9629C81.9102 68.3887 82.4551 68.6016 83.209 68.6016ZM92.9121 65.8066C92.9121 66.8457 92.6602 67.6582 92.1562 68.2441C91.6523 68.8262 90.957 69.1172 90.0703 69.1172C89.5117 69.1172 89.0195 68.9824 88.5938 68.7129C88.168 68.4434 87.8418 68.0566 87.6152 67.5527C87.3887 67.0488 87.2754 66.4668 87.2754 65.8066C87.2754 64.7676 87.5273 63.959 88.0312 63.3809C88.5352 62.7988 89.2266 62.5078 90.1055 62.5078C90.9805 62.5078 91.666 62.8027 92.1621 63.3926C92.6621 63.9785 92.9121 64.7832 92.9121 65.8066ZM87.8848 65.8066C87.8848 66.6816 88.0762 67.3652 88.459 67.8574C88.8457 68.3457 89.3906 68.5898 90.0938 68.5898C90.7969 68.5898 91.3398 68.3457 91.7227 67.8574C92.1094 67.3652 92.3027 66.6816 92.3027 65.8066C92.3027 64.9277 92.1074 64.2461 91.7168 63.7617C91.3301 63.2773 90.7852 63.0352 90.082 63.0352C89.3789 63.0352 88.8359 63.2773 88.4531 63.7617C88.0742 64.2422 87.8848 64.9238 87.8848 65.8066ZM94.3301 65.1738C94.3301 62.4082 95.1094 60.832 96.668 60.4453C97.2148 60.3086 97.7383 60.1934 98.2383 60.0996C98.7422 60.002 99.1875 59.916 99.5742 59.8418L99.6797 60.3457L98.9766 60.4805C97.8164 60.6992 97.0508 60.8672 96.6797 60.9844C96.1523 61.1367 95.7383 61.502 95.4375 62.0801C95.1406 62.6582 94.9707 63.4492 94.9277 64.4531H94.9629C95.3809 63.957 95.7871 63.6035 96.1816 63.3926C96.5762 63.1777 96.9824 63.0703 97.4004 63.0703C98.1816 63.0703 98.7793 63.3223 99.1934 63.8262C99.6074 64.3301 99.8145 65.0469 99.8145 65.9766C99.8145 66.9648 99.5762 67.7363 99.0996 68.291C98.623 68.8418 97.9531 69.1172 97.0898 69.1172C96.2148 69.1172 95.5352 68.7754 95.0508 68.0918C94.5703 67.4082 94.3301 66.4355 94.3301 65.1738ZM97.1367 68.5898C97.8047 68.5898 98.3145 68.3672 98.666 67.9219C99.0215 67.4766 99.1992 66.8359 99.1992 66C99.1992 65.207 99.041 64.6094 98.7246 64.207C98.4121 63.8008 97.9512 63.5977 97.3418 63.5977C96.8887 63.5977 96.4492 63.7402 96.0234 64.0254C95.6016 64.3066 95.2324 64.6973 94.916 65.1973C94.916 65.8965 95.002 66.5098 95.1738 67.0371C95.3496 67.5645 95.6035 67.9551 95.9355 68.209C96.2676 68.4629 96.668 68.5898 97.1367 68.5898Z" fill="#232323"/>
</svg>

<svg width="158" height="140" fill="none" xmlns="http://www.w3.org/2000/svg"><path d="M136.26 139L157 124.587l-.564-117.345M136.26 139l.789-130.396M136.26 139L1 97.918V1.794m155.436 5.448l-19.387 1.362m19.387-1.362L151.59 6.22 27.94 1 1 1.794m136.049 6.81L1 1.794m124.89 20.882l-.789 101.684L8.439 91.109V13.257l117.451 9.419z" stroke="#232323" stroke-opacity=".6"/><path d="M32.543 60.85a3.89 3.89 0 00-.908.105 4.48 4.48 0 00-.95.352l-.24-.54c.64-.304 1.36-.457 2.157-.457 1.265 0 2.257.375 2.976 1.125.723.75 1.084 1.776 1.084 3.077 0 .933-.162 1.748-.486 2.443-.324.695-.793 1.23-1.407 1.606-.609.37-1.314.556-2.115.556-.93 0-1.677-.1-2.244-.299v-.55a7.278 7.278 0 002.133.298c1.055 0 1.885-.33 2.49-.99.606-.66.936-1.59.99-2.789h-4.535v-.55h4.524c-.086-1.087-.428-1.922-1.026-2.508-.593-.586-1.408-.88-2.443-.88zm9.398 1.78h.721l-2.853 3.083L42.867 69h-.78l-3.01-3.228V69h-.593v-6.37h.592v3.095l2.865-3.094zm4.776 6.487c-.98 0-1.695-.367-2.145-1.101h-.04l.017.492c.016.289.023.605.023.949v2.426h-.58V62.63h.492l.112.908h.035c.437-.687 1.137-1.031 2.097-1.031.86 0 1.514.283 1.963.85.453.562.68 1.382.68 2.46 0 1.047-.238 1.86-.715 2.438-.472.574-1.119.861-1.94.861zm-.012-.515c.652 0 1.156-.243 1.512-.727.36-.484.539-1.162.539-2.033 0-1.871-.676-2.807-2.028-2.807-.742 0-1.287.205-1.634.615-.348.407-.522 1.07-.522 1.993v.187c0 .996.166 1.707.498 2.133.336.426.881.639 1.635.639zm8.303.398l-.147-1.008h-.046c-.32.41-.65.701-.99.873-.337.168-.735.252-1.196.252-.625 0-1.111-.16-1.46-.48-.347-.32-.52-.764-.52-1.33 0-.621.257-1.104.773-1.448.52-.343 1.27-.525 2.25-.544l1.213-.036v-.422c0-.605-.123-1.062-.37-1.37-.245-.31-.642-.464-1.189-.464-.59 0-1.201.164-1.834.493l-.217-.504c.7-.328 1.391-.492 2.075-.492.699 0 1.22.181 1.564.544.348.364.521.93.521 1.7V69h-.427zm-2.344-.41c.68 0 1.215-.194 1.605-.58.395-.39.592-.932.592-1.623v-.627l-1.113.047c-.895.043-1.533.183-1.916.421-.379.235-.568.602-.568 1.102 0 .398.12.71.363.932.246.219.592.328 1.037.328zm5.42-5.96v2.796h4.043V62.63h.574V69h-.574v-3.07h-4.043V69h-.58v-6.37h.58zm13.33 0h.72l-2.853 3.083L72.34 69h-.78l-3.011-3.228V69h-.592v-6.37h.592v3.095l2.865-3.094zm7.318 3.177c0 1.039-.251 1.851-.755 2.437-.504.582-1.2.873-2.086.873-.559 0-1.051-.135-1.477-.404-.426-.27-.752-.656-.978-1.16-.227-.504-.34-1.086-.34-1.746 0-1.04.252-1.848.756-2.426.504-.582 1.195-.873 2.074-.873.875 0 1.56.295 2.056.885.5.585.75 1.39.75 2.414zm-5.027 0c0 .875.192 1.558.574 2.05.387.489.932.733 1.635.733s1.246-.244 1.629-.733c.387-.492.58-1.175.58-2.05 0-.88-.195-1.56-.586-2.045-.387-.485-.931-.727-1.635-.727-.703 0-1.246.242-1.629.727-.379.48-.568 1.162-.568 2.045zm9.516 3.31c-.98 0-1.696-.367-2.145-1.101h-.04l.017.492c.015.289.023.605.023.949v2.426h-.58V62.63h.492l.112.908h.035c.437-.687 1.136-1.031 2.097-1.031.86 0 1.514.283 1.963.85.453.562.68 1.382.68 2.46 0 1.047-.238 1.86-.715 2.438-.472.574-1.119.861-1.94.861zm-.012-.515c.652 0 1.156-.243 1.512-.727.36-.484.539-1.162.539-2.033 0-1.871-.676-2.807-2.028-2.807-.742 0-1.287.205-1.634.615-.348.407-.522 1.07-.522 1.993v.187c0 .996.166 1.707.498 2.133.336.426.881.639 1.635.639zm9.703-2.795c0 1.039-.252 1.851-.756 2.437-.504.582-1.199.873-2.086.873-.558 0-1.05-.135-1.476-.404-.426-.27-.752-.656-.979-1.16-.226-.504-.34-1.086-.34-1.746 0-1.04.252-1.848.756-2.426.504-.582 1.196-.873 2.075-.873.875 0 1.56.295 2.056.885.5.585.75 1.39.75 2.414zm-5.027 0c0 .875.191 1.558.574 2.05.387.489.932.733 1.635.733s1.246-.244 1.629-.733c.386-.492.58-1.175.58-2.05 0-.88-.196-1.56-.586-2.045-.387-.485-.932-.727-1.635-.727s-1.246.242-1.629.727c-.379.48-.568 1.162-.568 2.045zm6.445-.633c0-2.766.78-4.342 2.338-4.729a26.98 26.98 0 011.57-.345l1.336-.258.106.504-.703.135c-1.16.218-1.926.386-2.297.503-.528.153-.942.518-1.243 1.096-.296.578-.466 1.37-.51 2.373h.036c.418-.496.824-.85 1.219-1.06.394-.215.8-.323 1.218-.323.782 0 1.38.252 1.793.756.414.504.621 1.22.621 2.15 0 .989-.238 1.76-.714 2.315-.477.55-1.147.826-2.01.826-.875 0-1.555-.342-2.04-1.025-.48-.684-.72-1.656-.72-2.918zm2.807 3.416c.668 0 1.177-.223 1.529-.668.356-.445.533-1.086.533-1.922 0-.793-.158-1.39-.474-1.793-.313-.406-.774-.61-1.383-.61-.453 0-.893.143-1.319.428-.421.282-.79.672-1.107 1.172 0 .7.086 1.313.258 1.84.176.527.43.918.761 1.172.333.254.733.38 1.202.38z" fill="#232323"/></svg>
